!!!OTL: Todes- und Lebens-Verlaengerung.
!!!OTL-incipit: ES LASSEN SICH DIE TODTEN FUERSTEN BALSAMIEREN
!!!COM: Studentenweise
!!!ARE: Europa, Mitteleuropa, Deutschland
!!!SCT: F0527
!!!TXL: @@DE
!!!YEM: Copyright 1995, estate of Helmut Schaffrath.
**kern	**text
*ICvox	*
*clefG2	*
*M2/4	*
*k[f#]	*
*G:	*
!LO:TX:a:t=Heiter.	!
!LO:TX:a:t=Ʒweie oder Einer.	!
!LO:TX:a:t=P:only the highest voice encoded:problem	!
{8d	Es
=1	=1
8g	laſ-
8a	-ſen
8b/	ſich
8cc/	die
=2	=2
4dd	tod-
4dd}	-ten
=3	=3
{8ee	Fürſten
8cc/	.
8gg	bal-
8ee	-ſa-
=4	=4
8eeL	-mi-
8ddJ	.
4dd}	-ren,
=5	=5
!LO:TX:a:t=Alle.	!
{8ee	Für-
8cc/	-ſten
8gg	bal-
8ee	-ſa-
=6	=6
8eeL	-mi-
8ddJ	.
4dd}	-ren,
=7	=7
!LO:TX:a:t=Solo.	!
{(8ddL	um
8ccJ)	.
8cc	de-
8cc	-ſto
=8	=8
4b/	län-
8b/}	-ger
{8b/	im
=9	=9
4a	To-
8dd/	-de
8dd/	ʒu
=10	=10
4b/	ſein,
4r}	.
=11	=11
!LO:TX:a:t=Alle.	!
{(8ddL	um
8ccJ)	.
8cc	de-
8cc	-ſto
=12	=12
4b/	län-
8b/}	-ger
{8b/	im
=13	=13
4a	To-
8b/	-de
8a	ʒu
=14	=14
4g	ſein.
8r}	.
!LO:TX:a:t=Solo.	!
{8d	Wir
=15	=15
8g	a-
8a	-ber
8b/	wol-
8cc/	-len
=16	=16
4dd	uns
4dd}	im
=17	=17
{8ee	Le-
8cc/	-ben
8gg	bal-
8ee	-ſa-
=18	=18
(8eeL	-mi-
8ddJ)	.
8dd}	-ren,
!LO:TX:a:t=Alle.	!
{8dd	im
=19	=19
8ee	Le-
8cc/	-ben
8gg	bal-
8ee	-ſa-
=20	=20
(8eeL	-mi-
8ddJ)	.
4dd}	-ren,
=21	=21
!LO:TX:a:t=Solo.	!
{(8ddL	um
8ccJ)	.
8cc	de-
8cc	-ſto
=22	=22
4b/	län-
8b/}	-ger
{8b/	im
=23	=23
4a	Le-
8dd/	-ben
8dd/	ʒu
=24	=24
2gg}	ſein,
=25	=25
!LO:TX:a:t=Alle.	!
{4ee	um
8ee	de-
8ee	-ſto
=26	=26
(8eeL	län-
8ddJ)	.
8dd}	-ger
{8b	im
=27	=27
4dd	Le-
8cc	-ben
8a	ʒu
=28	=28
4g	ſein!
8r}	.
==	==
!!!AGN: Studenten - Lied
!!!ONB: ESAC (Essen Associative Code) Database: FINK
!!!AMT: simple duple
!!!AIN: vox
!!!EED: Helmut Schaffrath
!!!EEV: 1.0
!!!GTL: Studentenlieder
!!Text: Studentenlied
!!!source: Musikalischer Hausschatz der Deutschen. Eine Sammlung von über 1000 Liedern und Gesängen mit Singstimmen und Klavierbegleitung. Leipzig, Litterarisches Verlags-Haus.
!!!page: 337
!!!URL-scan: https://www.digitale-sammlungen.de/en/view/bsb11144622?page=314
!!!ENC: Anna Maria Matuszewska
!!!EEV: 2024/02/08
*-	*-
